X:1
T:Title
%%score { ( 1 4 6 ) | ( 2 3 5 ) }
L:1/8
Q:1/4=100
M:4/4
K:Ab
V:1 treble nm="Grand Piano"
V:4 treble 
V:6 treble 
V:2 bass 
V:3 bass 
V:5 bass 
V:1
 [CE]FEF [CE]2 .[A,CF]2 | B2 z2 z4 | [CE]2 [DF]E [B,D]2 [G,E]2 | C6 z2 | [CE]FEF [CE]2 .[A,CF]2 | %5
w: Ira~B.~Wilson * * * * *|||||
 B2 A2 z2 z G | B2 z2 z4 |[M:7/8] E-E-E- E- E3 |[M:1/4] CD |[M:4/4] [CE]2 [A,CA]2 [Ec]2 [Fd]c | %10
w: |||||
 z4 [=DB]4 | [DG]2 FE [DGB]2 [FG_c]2 |[M:7/8] c2- [=EGc]2 [_EGd]3 |[M:1/4] [A,C]D | %14
w: ||||
[M:4/4] [CE]2 [A,CA]2 [Ec]2 [EG][EA] | [FB]2 [Fc]2 [Fd]2 [EB]2 | [Ee]2 [FA][Fd] [Ec]3 [DB] | %17
w: |||
 [CA]6 z2 |] %18
w: |
V:2
 A,,2 [E,A,C]2 E,,2 z G | C,2 E,2 D,2 F,2 | z2 [E,A,]2 z2 E,2- | E,2 z2 z4 | %4
 A,,2 [E,A,C]2 E,,2 z G | C,2 _C,2 B,,2 z E | z2 F,2 z4 |[M:7/8] z2 A,2 B,3 |[M:1/4] A,B, | %9
[M:4/4] z4 z2 [F,=A,]2 | B,,2 [F,A,B,]2 [F,A,B,]2 z =D | E,,2 [E,G,D]2 [E,,E,]2 [D,,D,]2 | %12
[M:7/8] [C,,C,]2 [C,,C,]2 [B,,,B,,]3 |[M:1/4] z B, |[M:4/4] A,,2 E,2 [E,A,]2 [D,B,][C,A,] | %15
 [D,A,]2 [F,=A,]2 [B,,B,]2 [D,G,]2 | [C,A,]2 [D,A,][B,,A,] [E,G,]3 [E,G,] | [A,,E,A,]6 z2 |] %18
V:3
 z4 z2 E,2 | x8 | E,,2 z C E,,2 z2 | z2 =D,E, A,2 E,2 | z4 z2 E,2 | z4 z2 E,2 | %6
 B,,2 z G B,,2 B,,2 |[M:7/8] E,-E,-E,- E,- E,3 |[M:1/4] x2 |[M:4/4] A,,2 E,2 F,,2 z E | %10
 z4 z2 [F,A,]2 | x8 |[M:7/8] x7 |[M:1/4] E,,2 |[M:4/4] x8 | x8 | x8 | x8 |] %18
V:4
 x8 | E2- [A,CEA]2 [EG]2 [A,DF]2 | x8 | A,4 z4 | x8 | E4 [EG]4 | =D2- [B,DA]2 [DA]2 [A,B,D]2 | %7
[M:7/8] [G,B,]2 C2 D3 |[M:1/4] x2 |[M:4/4] x8 | [=DF]2 [DB]2 z2 z A | x8 |[M:7/8] [=EG]2 z z z z2 | %13
[M:1/4] x2 |[M:4/4] x8 | x8 | x8 | x8 |] %18
V:5
 x8 | x8 | x8 | A,,6 z2 | x8 | x8 | x8 |[M:7/8] x7 |[M:1/4] x2 |[M:4/4] x8 | x8 | x8 |[M:7/8] x7 | %13
[M:1/4] x2 |[M:4/4] x8 | x8 | x8 | x8 |] %18
V:6
 x8 | x8 | x8 | x8 | x8 | z4 z2 [G,B,]2 | x8 |[M:7/8] x7 |[M:1/4] x2 |[M:4/4] x8 | z4 z2 B,2 | x8 | %12
[M:7/8] x7 |[M:1/4] x2 |[M:4/4] x8 | x8 | x8 | x8 |] %18

